source/img/icons/logo_white.svg

<svg width="73" height="19" viewBox="0 0 73 19" fill="none" xmlns="http://www.w3.org/2000/svg">
<path d="M15.392 18H10.016L5.696 10.152L4.688 7.992H4.64L4.736 11.136V18H0.464V2.16H5.816L10.136 10.008L11.168 12.168H11.192L11.096 9.024V2.16H15.392V18ZM22.8834 18H18.0354V6H22.8834V18ZM21.9474 4.752L20.4594 2.856L18.9714 4.752H15.5874L18.1554 0.527999H22.7634L25.3314 4.752H21.9474ZM41.4787 5.76C42.6787 5.76 43.6307 6.12 44.3347 6.84C45.0387 7.56 45.3907 8.576 45.3907 9.888V18H40.5427V11.088C40.5427 10.48 40.4387 10.048 40.2307 9.792C40.0387 9.52 39.7427 9.384 39.3427 9.384C38.8307 9.384 38.4307 9.576 38.1427 9.96C37.8707 10.344 37.7347 10.912 37.7347 11.664V18H32.8867V11.088C32.8867 10.48 32.7827 10.048 32.5747 9.792C32.3827 9.52 32.0867 9.384 31.6867 9.384C31.1907 9.384 30.7987 9.576 30.5107 9.96C30.2227 10.344 30.0787 10.92 30.0787 11.688V18H25.2307V6H29.5987L29.7187 8.472C30.0867 7.592 30.6147 6.92 31.3027 6.456C32.0067 5.992 32.8467 5.76 33.8227 5.76C34.7347 5.76 35.5027 5.968 36.1267 6.384C36.7667 6.8 37.2227 7.4 37.4947 8.184C37.8627 7.4 38.3907 6.8 39.0787 6.384C39.7667 5.968 40.5667 5.76 41.4787 5.76ZM59.8753 11.712C59.8753 12.288 59.8353 12.752 59.7552 13.104H51.8593C51.9553 13.776 52.1713 14.248 52.5073 14.52C52.8433 14.792 53.3153 14.928 53.9233 14.928C54.8993 14.928 55.4993 14.544 55.7233 13.776L59.6353 14.904C59.3313 15.992 58.6673 16.824 57.6433 17.4C56.6353 17.96 55.3953 18.24 53.9233 18.24C51.7473 18.24 50.0833 17.704 48.9313 16.632C47.7793 15.544 47.2033 14 47.2033 12C47.2033 10.016 47.7633 8.48 48.8833 7.392C50.0193 6.304 51.6113 5.76 53.6593 5.76C55.6593 5.76 57.1953 6.296 58.2673 7.368C59.3393 8.424 59.8753 9.872 59.8753 11.712ZM53.6833 9.048C53.1553 9.048 52.7393 9.2 52.4353 9.504C52.1473 9.808 51.9553 10.304 51.8593 10.992H55.3393C55.2593 10.336 55.0833 9.848 54.8113 9.528C54.5553 9.208 54.1793 9.048 53.6833 9.048ZM66.9794 18.24C65.5554 18.24 64.3394 18.088 63.3314 17.784C62.3394 17.48 61.5154 16.984 60.8594 16.296L63.1394 13.656C63.5554 14.152 64.0674 14.536 64.6754 14.808C65.2834 15.064 65.9554 15.192 66.6914 15.192C67.1074 15.192 67.4434 15.144 67.6994 15.048C67.9554 14.952 68.0834 14.808 68.0834 14.616C68.0834 14.44 67.9394 14.288 67.6514 14.16C67.3634 14.016 66.8514 13.864 66.1154 13.704C64.3554 13.368 63.0834 12.888 62.2994 12.264C61.5314 11.64 61.1474 10.832 61.1474 9.84C61.1474 9.152 61.3714 8.496 61.8194 7.872C62.2834 7.248 62.9714 6.744 63.8834 6.36C64.8114 5.96 65.9554 5.76 67.3154 5.76C69.9234 5.76 71.8034 6.424 72.9554 7.752L70.7714 10.128C70.0194 9.248 68.9314 8.808 67.5074 8.808C67.0114 8.808 66.6354 8.872 66.3794 9C66.1234 9.112 65.9954 9.264 65.9954 9.456C65.9954 9.616 66.1314 9.76 66.4034 9.888C66.6914 10 67.1634 10.112 67.8194 10.224C69.6274 10.496 70.9314 10.944 71.7314 11.568C72.5474 12.176 72.9554 13.024 72.9554 14.112C72.9554 15.312 72.4514 16.304 71.4434 17.088C70.4354 17.856 68.9474 18.24 66.9794 18.24Z" fill="white"/>
</svg>

<svg width="73" height="19" fill="none" xmlns="http://www.w3.org/2000/svg"><path d="M15.392 18h-5.376l-4.32-7.848-1.008-2.16H4.64l.096 3.144V18H.464V2.16h5.352l4.32 7.848 1.032 2.16h.024l-.096-3.144V2.16h4.296V18zm7.491 0h-4.848V6h4.848v12zm-.936-13.248L20.46 2.856l-1.488 1.896h-3.384L18.155.528h4.608l2.568 4.224h-3.384zM41.48 5.76c1.2 0 2.152.36 2.856 1.08.704.72 1.056 1.736 1.056 3.048V18h-4.848v-6.912c0-.608-.104-1.04-.312-1.296-.192-.272-.488-.408-.888-.408-.512 0-.912.192-1.2.576-.272.384-.408.952-.408 1.704V18h-4.848v-6.912c0-.608-.104-1.04-.312-1.296-.192-.272-.488-.408-.888-.408-.496 0-.888.192-1.176.576-.288.384-.432.96-.432 1.728V18h-4.85V6h4.368l.12 2.472c.368-.88.896-1.552 1.584-2.016.704-.464 1.544-.696 2.52-.696.912 0 1.68.208 2.304.624.64.416 1.096 1.016 1.368 1.8.368-.784.896-1.384 1.584-1.8.688-.416 1.488-.624 2.4-.624zm18.396 5.952c0 .576-.04 1.04-.12 1.392H51.86c.096.672.312 1.144.648 1.416s.808.408 1.416.408c.976 0 1.576-.384 1.8-1.152l3.912 1.128c-.304 1.088-.968 1.92-1.992 2.496-1.008.56-2.248.84-3.72.84-2.176 0-3.84-.536-4.992-1.608C47.78 15.544 47.203 14 47.203 12c0-1.984.56-3.52 1.68-4.608C50.02 6.304 51.611 5.76 53.66 5.76c2 0 3.536.536 4.608 1.608 1.072 1.056 1.608 2.504 1.608 4.344zm-6.192-2.664c-.528 0-.944.152-1.248.456-.288.304-.48.8-.576 1.488h3.48c-.08-.656-.256-1.144-.528-1.464-.256-.32-.632-.48-1.128-.48zM66.98 18.24c-1.424 0-2.64-.152-3.648-.456-.992-.304-1.816-.8-2.472-1.488l2.28-2.64c.416.496.928.88 1.536 1.152.608.256 1.28.384 2.016.384.416 0 .752-.048 1.008-.144.256-.096.384-.24.384-.432 0-.176-.144-.328-.432-.456-.288-.144-.8-.296-1.536-.456-1.76-.336-3.032-.816-3.816-1.44-.768-.624-1.152-1.432-1.152-2.424 0-.688.224-1.344.672-1.968.464-.624 1.152-1.128 2.064-1.512.928-.4 2.072-.6 3.432-.6 2.608 0 4.488.664 5.64 1.992l-2.184 2.376c-.752-.88-1.84-1.32-3.264-1.32-.496 0-.872.064-1.128.192-.256.112-.384.264-.384.456 0 .16.136.304.408.432.288.112.76.224 1.416.336 1.808.272 3.112.72 3.912 1.344.816.608 1.224 1.456 1.224 2.544 0 1.2-.504 2.192-1.512 2.976-1.008.768-2.496 1.152-4.464 1.152z" fill="#fff"/></svg>
